X: 24283
T: Lost Boys
R: jig
M: 6/8
K: Dmajor
G,|:A,DF Adf|agf efg|fdf ece|dcB AFD|
A,DF Adf|agf efg|fdf ecA|1 ABc d2G,:|2 ABc d2A||
|:BfB gBf|faf fgf|AeA fAe|efe cBA|
BfB gBf|faf fgf|gfe dcB|1 ABc d2A:|2 ABc d3||

